X:1
T:Title
%%score { ( 1 3 ) | ( 2 4 ) }
L:1/8
M:6/8
K:C
V:1 treble nm="Grand Piano"
V:3 treble 
V:2 bass 
V:4 bass 
V:1
 z3 z2[Q:1/4=100] [EG] | E2 E E2 [DF] | [EG]2 [EG] [EG]2 [EG] | [Ec]2 [Gc] [GB]2 [FA] | %4
[M:5/8] [EG]-[EG]- [EG]3 |[M:1/8] [CE] |[M:3/4] [DF]2 [DF] [DF]2 [B,G] | [CE]2 [DG] [Ec]2 [Ec] | %8
 B2 G A2 B |[M:5/8] [G,G]2- [G,-EG-] [G,FG]2 |[M:1/8] G |[M:3/4] [Ec]2 [GB]d cA | %12
 [EG]2 [CE] [EG]2 [EG] | [Ec]2 [Ec]c B[^Fc] |[M:5/8] d-d- d3 |[M:1/8] G | %16
[M:3/4] [Ge]2 [Ge] [Ec]2 [Ge] | dc A [EG]2 [EG] | AB [Gc] [Fc]2 B |[M:5/8] [Ec]-[Ec]- [Ec]3 | %20
[M:1/8] [Ec] |[M:3/4] c3 A3 | [FA][EG] [_E^F] [=EG]2 [EG] | [Ge]2 [Ge]e z [C^FA] | %24
[M:5/8] [G,B,Fd]-[G,B,Fd]- [G,B,Fd]3 |[M:1/8] [B,G] |[M:3/4] [Ge]2 [Ge] [Ec]2 [Ge] | %27
 dc A [EG]2 [EG] | AB [Gc] [Fc]2 B |[M:13/8] [Ec]-[Ec]- [Ec]3 z z z z z z z2 |] %30
V:2
 z3 z2 [C,C] | [C,G,C]2 [C,G,C] [C,G,C]2 [C,G,] | [C,C]2 [C,C] [C,C]2 [C,C] | %3
 [C,C]2 [E,C] [F,C]2 [F,C] |[M:5/8] [C,C]-[C,C]- [C,C]3 |[M:1/8] [C,G,] | %6
[M:3/4] [G,,G,]2 [G,,G,] [G,,G,]2 [G,,G,] | [C,G,]2 [B,,G,] [A,,A,]2 [A,,^F,] | %8
 [D,G,D]2 [D,B,D] [D,CD]2 [D,D] |[M:5/8] z2 C[K:treble] D2 |[M:1/8] [G,F] | %11
[M:3/4][K:bass] [C,G,]2 [E,G,] [F,A,F]2 [F,CF] | [C,C]2 [C,G,] [C,C]2 [C,C] | %13
 [C,G,]2 [C,G,] [A,,A,]2 [A,,A,] |[M:5/8] [G,,B,F]-[G,,B,F]- [G,,B,F]3 |[M:1/8] [G,B,] | %16
[M:3/4] [C,C]2 [C,C] [C,G,]2 [C,C] | [F,A,F]2 [F,CF] [C,C]2 [C,C] | [F,CF]2 [E,C] [D,G,]2 [G,F] | %19
[M:5/8] [C,G,]-[C,G,]- [C,G,]3 |[M:1/8] [C,_B,] |[M:3/4] [F,A,F]2 [F,A,] [F,CF]2 [F,C] | %22
 [C,C]2 [C,C] [C,C]2 [C,C] | [C,C]2 .[C,C]2[K:treble] d[K:bass]D, |[M:5/8] G,,-G,,- G,,3 | %25
[M:1/8] G, |[M:3/4] [C,C]2 [C,C] [C,G,]2 [C,C] | [F,A,F]2 [F,CF] [C,C]2 [C,C] | %28
 [F,CF]2 [E,C] [D,G,]2 [G,F] |[M:13/8] [C,G,]-[C,G,]- [C,G,]3 z z z z z z z2 |] %30
V:3
 x6 | x6 | x6 | x6 |[M:5/8] x5 |[M:1/8] x |[M:3/4] x6 | x6 | x6 |[M:5/8] [B,D]2 z z2 |[M:1/8] x | %11
[M:3/4] x6 | x6 | z2 z .^F3 |[M:5/8] x5 |[M:1/8] x |[M:3/4] x6 | x6 | x6 |[M:5/8] x5 |[M:1/8] x | %21
[M:3/4] z2 .F2 z F | x6 | z2 z .^F3 |[M:5/8] x5 |[M:1/8] x |[M:3/4] x6 | x6 | x6 |[M:13/8] x13 |] %30
V:4
 x6 | x6 | x6 | x6 |[M:5/8] x5 |[M:1/8] x |[M:3/4] x6 | x6 | x6 |[M:5/8] G,,-G,,- G,,3[K:treble] | %10
[M:1/8] x |[M:3/4][K:bass] x6 | x6 | x6 |[M:5/8] x5 |[M:1/8] x |[M:3/4] x6 | x6 | x6 |[M:5/8] x5 | %20
[M:1/8] x |[M:3/4] x6 | x6 | z2 z .[D,C]3[K:treble][K:bass] |[M:5/8] x5 |[M:1/8] x |[M:3/4] x6 | %27
 x6 | x6 |[M:13/8] x13 |] %30

